X:1
T:Title
%%score 1 2
L:1/8
Q:1/4=113
M:4/4
K:G
V:1 treble nm="Grand Piano, Treble Clef"
V:2 bass nm="Choir Pad, River City, 76.76"
V:1
 [DB]2 [DB]>[CA] [B,G]2 [B,D]2 | [CE]4 [EG]4 | [FA]2 [FA]>[GB] [Ac]2 [Fd]2 | [GB]6 z2 | %4
w: By~Charles~C.~Treat,~1888 * * * *||||
 [DB]2 [DB]>[CA] [B,G]2 [=FB]2 | [CA]4 [CE]4 | [Fc]2 [Fc]>[GB] [FA]2 [FA][FB] | G8 |] %8
w: ||||
V:2
 [G,,G,]2 [G,,G,]>[G,,G,] [G,,G,]2 [G,,G,]2 | [C,G,]4 [C,G,]4 | [D,D]2 [D,D]>[D,D] [D,A,]2 [D,D]2 | %3
 [G,D]6 z2 | [G,,G,]2 [G,,G,]>[G,,G,] [G,,G,]2 [G,,G,]2 | [C,E,]4 [C,G,]4 | %6
 [D,A,]2 [D,A,]>[D,B,] [D,C]2 [D,C][D,D] | [G,B,]8 |] %8

